archdroid-icon-theme/Archdroid-Blue/actions/scalable/archive-insert-directory.svg

<?xml version="1.0" encoding="UTF-8" standalone="no"?>
<svg
   xmlns:dc="http://purl.org/dc/elements/1.1/"
   xmlns:cc="http://creativecommons.org/ns#"
   xmlns:rdf="http://www.w3.org/1999/02/22-rdf-syntax-ns#"
   xmlns:svg="http://www.w3.org/2000/svg"
   xmlns="http://www.w3.org/2000/svg"
   xmlns:sodipodi="http://sodipodi.sourceforge.net/DTD/sodipodi-0.dtd"
   xmlns:inkscape="http://www.inkscape.org/namespaces/inkscape"
   fill="#2196F3"
   width="48"
   height="48"
   viewBox="0 0 48 48"
   id="svg2"
   version="1.1"
   inkscape:version="0.91 r13725"
   sodipodi:docname="package-x-generic.svg">
  <metadata
     id="metadata10">
    <rdf:RDF>
      <cc:Work
         rdf:about="">
        <dc:format>image/svg+xml</dc:format>
        <dc:type
           rdf:resource="http://purl.org/dc/dcmitype/StillImage" />
        <dc:title />
      </cc:Work>
    </rdf:RDF>
  </metadata>
  <defs
     id="defs8" />
  <sodipodi:namedview
     pagecolor="#ffffff"
     bordercolor="#666666"
     borderopacity="1"
     objecttolerance="10"
     gridtolerance="10"
     guidetolerance="10"
     inkscape:pageopacity="0"
     inkscape:pageshadow="2"
     inkscape:window-width="1366"
     inkscape:window-height="713"
     id="namedview6"
     showgrid="false"
     inkscape:zoom="10.73600263530468"
     inkscape:cx="27.45032540619392"
     inkscape:cy="25.04906139911642"
     inkscape:window-x="0"
     inkscape:window-y="30"
     inkscape:window-maximized="1"
     inkscape:current-layer="svg2"
     inkscape:snap-bbox="true"
     inkscape:bbox-paths="true"
     inkscape:bbox-nodes="true" />
  <path
     d="M 12 6 C 11.07 6 10.239453125 6.42984375 9.689453125 7.08984375 L 6.919921875 10.44921875 C 6.339921875 11.14921875 5.999999999999999 12.03 6 13 L 6 38 C 6 40.21 7.790000000000001 42 10 42 L 38 42 C 40.21 42 42 40.21 42 38 L 42 13 C 42 12.03 41.65984374999999 11.14921875 41.08984375 10.44921875 L 38.3203125 7.08984375 C 37.7603125 6.42984375 36.93 6 36 6 L 12 6 z M 11.880859375 8 L 35.880859375 8 L 37.75 10 L 10.25 10 L 11.880859375 8 z M 16 18 L 22 18 L 24 20 L 32 20 C 33.10500000000001 20 34 20.89499999999999 34 22 L 34 32 C 34 33.105 33.10500000000001 34 32 34 L 16 34 C 14.895 34 14 33.105 14 32 L 14.009765625 20 C 14.009765625 18.895 14.895 18 16 18 z "
     id="path4188" />
</svg>

<svg xmlns="http://www.w3.org/2000/svg" fill="#2196F3" viewBox="0 0 48 48"><path d="m12 6c-.93 0-1.761.43-2.311 1.09l-2.77 3.359c-.58.7-.92 1.581-.92 2.551v25c0 2.21 1.79 4 4 4h28c2.21 0 4-1.79 4-4v-25c0-.97-.34-1.851-.91-2.551l-2.77-3.359c-.56-.66-1.39-1.09-2.32-1.09h-24m-.119 2h24l1.869 2h-27.5l1.631-2m4.119 10h6l2 2h8c1.105 0 2 .895 2 2v10c0 1.105-.895 2-2 2h-16c-1.105 0-2-.895-2-2l.01-12c0-1.105.885-2 1.99-2"/></svg>
